T: Eagle's Whistle, The
M: 2/4
L: 1/8
K: Gmaj
|:D|B2 B2 dBAG | B2 B2 dBAG | A2 A2 ABAG  | A2 A2 ABAG |
B2 B2 dBAG | B2 B2 dBAB | G2 G2 GBAB |1 G2 G2 D2 D2 :|2G2 G2 GABd||
|: e2 e2 degd | e2 e2 dBAG | A2 A2 ABAG | A2 A2 AGBd |
e2 e2 degd | e2 e2 dBAB | G2 G2 GBAB |1 G2 G2 GABd :|2 G2 G2 D2 D2||
